X: 9
T: Miss Sarah Drummond Of Perth
R: strathspey
M: 4/4
L: 1/8
K: Amix
|: za |e<Ae>A (3Bcd e2 | d<gB>g d>gB<G |
A<Ae>A (3Bcd (3efg | (3agf g<B A2 :|
|: (3efg |a2 e<a c<ae>a | g2 d<g B<gG>g |
[1 a2 e<a c<ae>g | (3agf g<B A2 :|
[2 a2 e<a g<b (3efg | (3agf g<B A2 |]


Tune 1556	Setting 21191

